;FLAVOR:Marlin
;TIME:21597
;Filament used: 5.13469m
;Layer height: 0.12
;MINX:51.94
;MINY:68.939
;MINZ:0.12
;MAXX:169.25
;MAXY:151.061
;MAXZ:6
;Generated with Cura_SteamEngine 4.13.1
M82 ;absolute extrusion mode
; Ender 3 Custom Start G-code
M140 S60 ; Set Heat Bed temperature
M190 S60 ; Wait for Heat Bed temperature
M104 S160; start warming extruder to 160
G28 ; Home all axes
G29 ; Auto bed-level (BL-Touch)
G92 E0 ; Reset Extruder
M104 S200 ; Set Extruder temperature
G1 X0.1 Y20 Z0.3 F5000.0 ; Move to start position
M109 S200 ; Wait for Extruder temperature
; G1 Z2.0 F3000 ; Move Z Axis up little to prevent scratching of Heat Bed
G1 X0.1 Y200.0 Z0.3 F1500.0 E15 ; Draw the first line
G1 X0.4 Y200.0 Z0.3 F5000.0 ; Move to side a little
G1 X0.4 Y20 Z0.3 F1500.0 E30 ; Draw the second line
G92 E0 ; Reset Extruder
G1 Z2.0 F3000 ; Move Z Axis up little to prevent scratching of Heat Bed
; End of custom start GCode
G92 E0
G92 E0
G1 F1500 E-6.5
;LAYER_COUNT:50
;LAYER:0
M107
G0 F6000 X55.822 Y71.305 Z0.12
;TYPE:SKIRT
G1 F1500 E0
G1 F1200 X56.558 Y70.758 E0.00915
G1 X57.338 Y70.278 E0.01829
G1 X58.157 Y69.867 E0.02743
G1 X59.009 Y69.529 E0.03658
G1 X59.886 Y69.267 E0.04571
G1 X60.784 Y69.082 E0.05486
G1 X62.139 Y68.954 E0.06844
G1 X62.443 Y68.945 E0.07147
G1 X62.754 Y68.94 E0.07458
G1 X158.043 Y68.939 E1.02538
G1 X158.891 Y68.95 E1.03384
G1 X159.806 Y69.003 E1.04298
G1 X160.713 Y69.136 E1.05213
G1 X161.604 Y69.347 E1.06127
G1 X162.474 Y69.635 E1.07041
G1 X163.316 Y69.998 E1.07956
G1 X164.122 Y70.433 E1.0887
G1 X164.888 Y70.936 E1.09784
G1 X165.607 Y71.505 E1.10699
G1 X166.273 Y72.133 E1.11612
G1 X166.882 Y72.818 E1.12527
G1 X167.429 Y73.553 E1.13441
G1 X167.91 Y74.333 E1.14356
G1 X168.321 Y75.152 E1.1527
G1 X168.66 Y76.003 E1.16184
G1 X168.922 Y76.881 E1.17098
G1 X169.107 Y77.779 E1.18013
G1 X169.213 Y78.689 E1.18927
G1 X169.237 Y79.153 E1.19391
G1 X169.246 Y79.472 E1.19709
G1 X169.25 Y79.768 E1.20005
G1 X169.249 Y139.955 E1.80059
G1 X169.24 Y140.682 E1.80785
G1 X169.189 Y141.597 E1.81699
G1 X169.058 Y142.504 E1.82614
G1 X168.849 Y143.396 E1.83528
G1 X168.562 Y144.266 E1.84442
G1 X168.201 Y145.108 E1.85356
G1 X167.768 Y145.916 E1.86271
G1 X167.266 Y146.682 E1.87185
G1 X166.699 Y147.402 E1.88099
G1 X166.071 Y148.07 E1.89014
G1 X165.388 Y148.68 E1.89928
G1 X164.654 Y149.229 E1.90842
G1 X163.875 Y149.711 E1.91756
G1 X163.057 Y150.124 E1.9267
G1 X162.206 Y150.464 E1.93585
G1 X161.329 Y150.728 E1.94499
G1 X160.432 Y150.915 E1.95413
G1 X159.522 Y151.023 E1.96327
G1 X159.035 Y151.048 E1.96814
G1 X158.714 Y151.057 E1.97134
G1 X158.42 Y151.061 E1.97428
G1 X62.992 Y151.059 E2.92646
G1 X62.313 Y151.049 E2.93324
G1 X61.399 Y150.995 E2.94237
G1 X60.492 Y150.862 E2.95152
G1 X59.601 Y150.651 E2.96066
G1 X58.731 Y150.362 E2.9698
G1 X57.89 Y149.999 E2.97894
G1 X57.083 Y149.564 E2.98809
G1 X56.318 Y149.06 E2.99723
G1 X55.599 Y148.492 E3.00638
G1 X55.023 Y147.955 E3.01423
G1 X54.404 Y147.279 E3.02338
G1 X53.847 Y146.552 E3.03252
G1 X53.354 Y145.779 E3.04167
G1 X52.931 Y144.966 E3.05081
G1 X52.581 Y144.12 E3.05995
G1 X52.305 Y143.246 E3.06909
G1 X52.107 Y142.351 E3.07824
G1 X51.988 Y141.443 E3.08737
G1 X51.951 Y140.799 E3.09381
G1 X51.943 Y140.487 E3.09692
G1 X51.94 Y140.218 E3.09961
G1 X51.941 Y79.972 E3.70075
G1 X51.951 Y79.294 E3.70751
G1 X52.005 Y78.379 E3.71666
G1 X52.138 Y77.473 E3.72579
G1 X52.349 Y76.581 E3.73494
G1 X52.638 Y75.712 E3.74408
G1 X53.001 Y74.87 E3.75323
G1 X53.436 Y74.064 E3.76237
G1 X53.94 Y73.299 E3.77151
G1 X54.508 Y72.58 E3.78065
G1 X55.138 Y71.914 E3.7898
G1 X55.822 Y71.305 E3.79894
G0 F6000 X56.016 Y71.406
G1 F1200 X56.749 Y70.87 E3.808
G1 X57.526 Y70.402 E3.81705
G1 X58.342 Y70.004 E3.82611
G1 X59.189 Y69.679 E3.83516
G1 X60.062 Y69.43 E3.84422
G1 X60.953 Y69.258 E3.85327
G1 X62.145 Y69.154 E3.86521
G1 X62.449 Y69.145 E3.86824
G1 X62.754 Y69.14 E3.87129
G1 X158.043 Y69.139 E4.82209
G1 X158.889 Y69.15 E4.83053
G1 X159.795 Y69.203 E4.83958
G1 X160.692 Y69.336 E4.84863
G1 X161.575 Y69.547 E4.85769
G1 X162.436 Y69.834 E4.86675
G1 X163.268 Y70.197 E4.8758
G1 X164.064 Y70.631 E4.88485
G1 X164.82 Y71.134 E4.89391
G1 X165.528 Y71.702 E4.90297
G1 X166.184 Y72.329 E4.91202
G1 X166.782 Y73.012 E4.92108
G1 X167.317 Y73.745 E4.93013
G1 X167.786 Y74.522 E4.93919
G1 X168.185 Y75.337 E4.94825
G1 X168.51 Y76.184 E4.9573
G1 X168.759 Y77.057 E4.96636
G1 X168.931 Y77.948 E4.97541
G1 X169.037 Y79.159 E4.98754
G1 X169.046 Y79.478 E4.99072
G1 X169.05 Y79.768 E4.99362
G1 X169.049 Y139.953 E5.59415
G1 X169.04 Y140.68 E5.6014
G1 X168.989 Y141.586 E5.61046
G1 X168.858 Y142.484 E5.61951
G1 X168.649 Y143.367 E5.62856
G1 X168.363 Y144.228 E5.63762
G1 X168.002 Y145.061 E5.64668
G1 X167.569 Y145.858 E5.65573
G1 X167.068 Y146.615 E5.66478
G1 X166.502 Y147.324 E5.67384
G1 X165.875 Y147.981 E5.6829
G1 X165.194 Y148.58 E5.69195
G1 X164.462 Y149.117 E5.70101
G1 X163.686 Y149.587 E5.71006
G1 X162.871 Y149.988 E5.71912
G1 X162.025 Y150.314 E5.72817
G1 X161.153 Y150.566 E5.73723
G1 X160.262 Y150.739 E5.74628
G1 X159.03 Y150.848 E5.75862
G1 X158.709 Y150.857 E5.76183
G1 X158.42 Y150.861 E5.76471
G1 X62.995 Y150.859 E6.71687
G1 X62.316 Y150.849 E6.72364
G1 X61.41 Y150.796 E6.7327
G1 X60.513 Y150.663 E6.74174
G1 X59.63 Y150.451 E6.75081
G1 X58.77 Y150.163 E6.75986
G1 X57.938 Y149.8 E6.76891
G1 X57.141 Y149.366 E6.77797
G1 X56.386 Y148.862 E6.78703
G1 X55.678 Y148.295 E6.79608
G1 X55.165 Y147.813 E6.8031
G1 X54.552 Y147.144 E6.81215
G1 X54 Y146.423 E6.82121
G1 X53.515 Y145.657 E6.83026
G1 X53.098 Y144.85 E6.83932
G1 X52.754 Y144.011 E6.84837
G1 X52.485 Y143.144 E6.85743
G1 X52.294 Y142.257 E6.86648
G1 X52.181 Y141.356 E6.87554
G1 X52.151 Y140.794 E6.88116
G1 X52.143 Y140.482 E6.88427
G1 X52.14 Y140.218 E6.88691
G1 X52.141 Y79.975 E7.48802
G1 X52.151 Y79.297 E7.49478
G1 X52.204 Y78.391 E7.50384
G1 X52.337 Y77.493 E7.51289
G1 X52.549 Y76.611 E7.52195
G1 X52.837 Y75.75 E7.53101
G1 X53.2 Y74.919 E7.54005
G1 X53.635 Y74.122 E7.54911
G1 X54.138 Y73.367 E7.55817
G1 X54.705 Y72.659 E7.56722
G1 X55.333 Y72.003 E7.57628
G1 X56.016 Y71.406 E7.58533
G0 F6000 X56.21 Y71.507
G1 F1200 X56.94 Y70.984 E7.59429
G1 X57.715 Y70.528 E7.60326
G1 X58.526 Y70.142 E7.61222
G1 X59.369 Y69.83 E7.62119
G1 X60.236 Y69.595 E7.63016
G1 X61.121 Y69.437 E7.63913
G1 X62.151 Y69.353 E7.64944
G1 X62.455 Y69.344 E7.65247
G1 X62.754 Y69.34 E7.65546
G1 X158.043 Y69.339 E8.60625
G1 X158.886 Y69.35 E8.61467
G1 X159.783 Y69.403 E8.62363
G1 X160.672 Y69.535 E8.6326
G1 X161.545 Y69.746 E8.64156
G1 X162.397 Y70.034 E8.65053
G1 X163.219 Y70.396 E8.6595
G1 X164.006 Y70.83 E8.66846
G1 X164.751 Y71.332 E8.67743
G1 X165.449 Y71.898 E8.68639
G1 X166.094 Y72.525 E8.69537
G1 X166.68 Y73.206 E8.70433
G1 X167.204 Y73.936 E8.7133
G1 X167.66 Y74.71 E8.72226
G1 X168.046 Y75.522 E8.73124
G1 X168.358 Y76.364 E8.7402
G1 X168.595 Y77.231 E8.74916
G1 X168.753 Y78.116 E8.75813
G1 X168.837 Y79.164 E8.76862
G1 X168.846 Y79.483 E8.77181
G1 X168.85 Y79.768 E8.77465
G1 X168.849 Y139.95 E9.37515
G1 X168.84 Y140.677 E9.38241
G1 X168.789 Y141.574 E9.39137
G1 X168.658 Y142.463 E9.40034
G1 X168.449 Y143.337 E9.4093
G1 X168.163 Y144.189 E9.41827
G1 X167.803 Y145.012 E9.42723
G1 X167.37 Y145.8 E9.43621
G1 X166.87 Y146.547 E9.44518
G1 X166.305 Y147.245 E9.45414
G1 X165.68 Y147.891 E9.4631
G1 X165 Y148.479 E9.47207
G1 X164.271 Y149.004 E9.48104
G1 X163.497 Y149.462 E9.49001
G1 X162.687 Y149.849 E9.49897
G1 X161.845 Y150.163 E9.50794
G1 X160.978 Y150.401 E9.51691
G1 X160.094 Y150.561 E9.52587
G1 X159.024 Y150.648 E9.53658
G1 X158.703 Y150.657 E9.53979
G1 X158.42 Y150.661 E9.54261
G1 X62.998 Y150.659 E10.49474
G1 X62.319 Y150.649 E10.50151
G1 X61.422 Y150.596 E10.51048
G1 X60.533 Y150.463 E10.51945
G1 X59.66 Y150.252 E10.52841
G1 X58.809 Y149.964 E10.53737
G1 X57.986 Y149.601 E10.54635
G1 X57.2 Y149.167 E10.55531
G1 X56.454 Y148.665 E10.56428
G1 X55.757 Y148.098 E10.57324
G1 X55.306 Y147.672 E10.57943
G1 X54.7 Y147.009 E10.5884
G1 X54.154 Y146.294 E10.59737
G1 X53.675 Y145.534 E10.60634
G1 X53.265 Y144.735 E10.6153
G1 X52.927 Y143.902 E10.62427
G1 X52.665 Y143.042 E10.63324
G1 X52.481 Y142.163 E10.6422
G1 X52.375 Y141.27 E10.65117
G1 X52.351 Y140.789 E10.65598
G1 X52.343 Y140.477 E10.65909
G1 X52.34 Y140.218 E10.66168
G1 X52.341 Y79.978 E11.26275
G1 X52.351 Y79.3 E11.26952
G1 X52.404 Y78.403 E11.27848
G1 X52.537 Y77.514 E11.28745
G1 X52.748 Y76.641 E11.29642
G1 X53.036 Y75.789 E11.30539
G1 X53.399 Y74.967 E11.31436
G1 X53.833 Y74.18 E11.32332
G1 X54.336 Y73.435 E11.33229
G1 X54.902 Y72.738 E11.34125
G1 X55.529 Y72.093 E11.35023
G1 X56.21 Y71.507 E11.35919
G1 F1500 E4.85919
;MESH:new_boite_007-couvercle h.stl
G0 F6000 X141.915 Y114.073
G0 X140.68 Y114.073
G0 X140.75 Y115.5
;TYPE:WALL-INNER
G1 F1500 E11.35919
G1 F1200 X151.75 Y115.5 E11.46895
G1 X151.75 Y104.5 E11.57871
G1 X140.75 Y104.5 E11.68847
G1 X140.75 Y115.5 E11.79823
G0 F6000 X140.95 Y115.3
G1 F1200 X151.55 Y115.3 E11.90399
G1 X151.55 Y104.7 E12.00976
G1 X140.95 Y104.7 E12.11553
G1 X140.95 Y115.3 E12.22129
G0 F6000 X141.15 Y115.1
;TYPE:WALL-OUTER
G1 F1200 X151.35 Y115.1 E12.32307
G1 X151.35 Y104.9 E12.42485
G1 X141.15 Y104.9 E12.52662
G1 X141.15 Y115.1 E12.6284
G1 F1500 E6.1284
G0 F6000 X140.95 Y115.1
G0 X140.68 Y114.073
G0 X141.915 Y114.073
G0 X140.652 Y141.226
G0 X140.652 Y139.97
G0 X62.94 Y140.06
;TYPE:WALL-INNER
G1 F1500 E12.6284
G1 F1200 X62.94 Y79.94 E13.22828
G1 X158.25 Y79.939 E14.17929
G1 X158.25 Y140.061 E14.77919
G1 X62.94 Y140.06 E15.73019
G0 F6000 X62.74 Y140.26
G1 F1200 X62.74 Y79.74 E16.33406
G1 X158.45 Y79.739 E17.28906
G1 X158.45 Y140.261 E17.89295
G1 X62.74 Y140.26 E18.84795
G0 F6000 X62.54 Y140.46
;TYPE:WALL-OUTER
G1 F1200 X62.54 Y79.54 E19.45581
G1 X158.65 Y79.539 E20.4148
G1 X158.65 Y140.461 E21.02268
G1 X62.54 Y140.46 E21.98167
G0 F6000 X63.13 Y139.87
;TYPE:SKIN
G1 F1200 X63.13 Y80.13 E22.57776
G1 X158.06 Y80.129 E23.52498
G1 X158.06 Y139.871 E24.12109
G1 X63.13 Y139.87 E25.0683
G1 F1500 E18.5683
G0 F6000 X62.95 Y139.87
G0 X140.738 Y139.97
G0 X140.738 Y141.226
G0 X141.915 Y114.073
G0 X140.68 Y114.073
G0 X140.74 Y115.54
G1 F1500 E25.0683
G0 F6000 X140.56 Y115.69
G1 F1200 X151.94 Y115.69 E25.18185
G1 X151.94 Y104.31 E25.2954
G1 X140.56 Y104.31 E25.40895
G1 X140.56 Y115.69 E25.5225
G1 F1500 E19.0225
G0 F6000 X140.74 Y115.54
G0 X142.638 Y115.57
G0 X142.638 Y114.335
G0 X159.415 Y104.404
G0 X158.14 Y104.404
G0 X158.24 Y80.48
G1 F1500 E25.5225
G0 F6000 X157.979 Y80.48
G1 F1200 X157.708 Y80.209 E25.52633
G0 F6000 X157.425 Y80.209
G1 F1200 X157.979 Y80.763 E25.53414
G0 F6000 X157.979 Y81.046
G1 F1200 X157.142 Y80.209 E25.54595
G0 F6000 X156.859 Y80.209
G1 F1200 X157.979 Y81.329 E25.56176
G0 F6000 X157.979 Y81.612
G1 F1200 X156.576 Y80.209 E25.58156
G0 F6000 X156.293 Y80.209
G1 F1200 X157.979 Y81.894 E25.60534
G0 F6000 X157.979 Y82.177
G1 F1200 X156.011 Y80.209 E25.63311
G0 F6000 X155.728 Y80.209
G1 F1200 X157.979 Y82.46 E25.66488
G0 F6000 X157.979 Y82.743
G1 F1200 X155.445 Y80.209 E25.70063
G0 F6000 X155.162 Y80.209
G1 F1200 X157.979 Y83.026 E25.74038
G0 F6000 X157.979 Y83.309
G1 F1200 X154.879 Y80.209 E25.78413
G0 F6000 X154.596 Y80.209
G1 F1200 X157.979 Y83.592 E25.83187
G0 F6000 X157.979 Y83.874
G1 F1200 X154.314 Y80.209 E25.88358
G0 F6000 X154.031 Y80.209
G1 F1200 X157.979 Y84.157 E25.93929
G0 F6000 X157.979 Y84.44
G1 F1200 X153.748 Y80.209 E25.999
G0 F6000 X153.465 Y80.209
G1 F1200 X157.979 Y84.723 E26.06269
G0 F6000 X157.979 Y85.006
G1 F1200 X153.182 Y80.209 E26.13039
G0 F6000 X152.899 Y80.209
G1 F1200 X157.979 Y85.289 E26.20207
G0 F6000 X157.979 Y85.571
G1 F1200 X152.616 Y80.209 E26.27774
G0 F6000 X152.334 Y80.209
G1 F1200 X157.979 Y85.854 E26.3574
G0 F6000 X157.979 Y86.137
G1 F1200 X152.051 Y80.209 E26.44105
G0 F6000 X151.768 Y80.209
G1 F1200 X157.979 Y86.42 E26.52869
G0 F6000 X157.979 Y86.703
G1 F1200 X151.485 Y80.209 E26.62033
G0 F6000 X151.202 Y80.209
G1 F1200 X157.979 Y86.986 E26.71596
G0 F6000 X157.979 Y87.268
G1 F1200 X150.919 Y80.209 E26.81558
G0 F6000 X150.637 Y80.209
G1 F1200 X157.979 Y87.551 E26.91918
G0 F6000 X157.979 Y87.834
G1 F1200 X150.354 Y80.209 E27.02678
G0 F6000 X150.071 Y80.209
G1 F1200 X157.979 Y88.117 E27.13837
G0 F6000 X157.979 Y88.4
G1 F1200 X149.788 Y80.209 E27.25395
G0 F6000 X149.505 Y80.209
G1 F1200 X157.979 Y88.683 E27.37353
G0 F6000 X157.979 Y88.966
G1 F1200 X149.222 Y80.209 E27.4971
G0 F6000 X148.94 Y80.209
G1 F1200 X157.979 Y89.248 E27.62465
G0 F6000 X157.979 Y89.531
G1 F1200 X148.657 Y80.209 E27.75619
G0 F6000 X148.374 Y80.209
G1 F1200 X157.979 Y89.814 E27.89173
G0 F6000 X157.979 Y90.097
G1 F1200 X148.091 Y80.209 E28.03126
G0 F6000 X147.808 Y80.209
G1 F1200 X157.979 Y90.38 E28.17478
G0 F6000 X157.979 Y90.663
G1 F1200 X147.525 Y80.209 E28.3223
G0 F6000 X147.242 Y80.209
G1 F1200 X157.979 Y90.945 E28.47381
G0 F6000 X157.979 Y91.228
G1 F1200 X146.96 Y80.209 E28.6293
G0 F6000 X146.677 Y80.209
G1 F1200 X157.979 Y91.511 E28.78878
G0 F6000 X157.979 Y91.794
G1 F1200 X146.394 Y80.209 E28.95226
G0 F6000 X146.111 Y80.209
G1 F1200 X157.979 Y92.077 E29.11973
G0 F6000 X157.979 Y92.36
G1 F1200 X145.828 Y80.209 E29.29119
G0 F6000 X145.545 Y80.209
G1 F1200 X157.979 Y92.643 E29.46665
G0 F6000 X157.979 Y92.925
G1 F1200 X145.263 Y80.209 E29.64608
G0 F6000 X144.98 Y80.209
G1 F1200 X157.979 Y93.208 E29.82951
G0 F6000 X157.979 Y93.491
G1 F1200 X144.697 Y80.209 E30.01694
G0 F6000 X144.414 Y80.209
G1 F1200 X157.979 Y93.774 E30.20835
G0 F6000 X157.979 Y94.057
G1 F1200 X144.131 Y80.209 E30.40376
G0 F6000 X143.848 Y80.209
G1 F1200 X157.979 Y94.34 E30.60317
G0 F6000 X157.979 Y94.622
G1 F1200 X143.566 Y80.209 E30.80655
G0 F6000 X143.283 Y80.209
G1 F1200 X157.979 Y94.905 E31.01393
G0 F6000 X157.979 Y95.188
G1 F1200 X143 Y80.209 E31.2253
G0 F6000 X142.717 Y80.209
G1 F1200 X157.979 Y95.471 E31.44066
G0 F6000 X157.979 Y95.754
G1 F1200 X142.434 Y80.209 E31.66002
G0 F6000 X142.151 Y80.209
G1 F1200 X157.979 Y96.037 E31.88337
G0 F6000 X157.979 Y96.319
G1 F1200 X141.868 Y80.209 E32.1107
G0 F6000 X141.586 Y80.209
G1 F1200 X157.979 Y96.602 E32.34203
G0 F6000 X157.979 Y96.885
G1 F1200 X141.303 Y80.209 E32.57734
G0 F6000 X141.02 Y80.209
G1 F1200 X157.979 Y97.168 E32.81665
G0 F6000 X157.979 Y97.451
G1 F1200 X140.737 Y80.209 E33.05996
G0 F6000 X140.454 Y80.209
G1 F1200 X157.979 Y97.734 E33.30725
G0 F6000 X157.979 Y98.017
G1 F1200 X140.171 Y80.209 E33.55854
G0 F6000 X139.889 Y80.209
G1 F1200 X157.979 Y98.299 E33.81381
G0 F6000 X157.979 Y98.582
G1 F1200 X139.606 Y80.209 E34.07308
G0 F6000 X139.323 Y80.209
G1 F1200 X157.979 Y98.865 E34.33633
G0 F6000 X157.979 Y99.148
G1 F1200 X139.04 Y80.209 E34.60358
G0 F6000 X138.757 Y80.209
G1 F1200 X157.979 Y99.431 E34.87482
G0 F6000 X157.979 Y99.714
G1 F1200 X138.474 Y80.209 E35.15006
G0 F6000 X138.191 Y80.209
G1 F1200 X157.979 Y99.996 E35.42928
G0 F6000 X157.979 Y100.279
G1 F1200 X137.909 Y80.209 E35.71249
G0 F6000 X137.626 Y80.209
G1 F1200 X157.979 Y100.562 E35.9997
G0 F6000 X157.979 Y100.845
G1 F1200 X137.343 Y80.209 E36.29089
G0 F6000 X137.06 Y80.209
G1 F1200 X157.979 Y101.128 E36.58608
G0 F6000 X157.979 Y101.411
G1 F1200 X136.777 Y80.209 E36.88527
G0 F6000 X136.494 Y80.209
G1 F1200 X157.979 Y101.693 E37.18843
G0 F6000 X157.979 Y101.976
G1 F1200 X136.212 Y80.209 E37.49559
G0 F6000 X135.929 Y80.209
G1 F1200 X157.979 Y102.259 E37.80674
G0 F6000 X157.979 Y102.542
G1 F1200 X135.646 Y80.209 E38.12188
G0 F6000 X135.363 Y80.209
G1 F1200 X157.979 Y102.825 E38.44102
G0 F6000 X157.979 Y103.108
G1 F1200 X135.08 Y80.209 E38.76415
G0 F6000 X134.797 Y80.209
G1 F1200 X157.979 Y103.391 E39.09127
G0 F6000 X157.979 Y103.673
G1 F1200 X134.515 Y80.209 E39.42237
G0 F6000 X134.232 Y80.209
G1 F1200 X157.979 Y103.956 E39.75747
G0 F6000 X157.979 Y104.239
G1 F1200 X133.949 Y80.209 E40.09656
G0 F6000 X133.666 Y80.209
G1 F1200 X157.979 Y104.522 E40.43964
G0 F6000 X157.979 Y104.805
G1 F1200 X133.383 Y80.209 E40.78672
G0 F6000 X133.1 Y80.209
G1 F1200 X157.979 Y105.088 E41.13779
G0 F6000 X157.979 Y105.37
G1 F1200 X132.817 Y80.209 E41.49284
G0 F6000 X132.535 Y80.209
G1 F1200 X157.979 Y105.653 E41.85189
G0 F6000 X157.979 Y105.936
G1 F1200 X132.252 Y80.209 E42.21492
G0 F6000 X131.969 Y80.209
G1 F1200 X157.979 Y106.219 E42.58195
