;FLAVOR:Marlin
;TIME:1725
;Filament used: 0.277133m
;Layer height: 0.12
;MINX:78.644
;MINY:35.761
;MINZ:0.12
;MAXX:140.131
;MAXY:69.926
;MAXZ:8.04
;Generated with Cura_SteamEngine 4.13.1
M82 ;absolute extrusion mode
; Ender 3 Custom Start G-code
M140 S60 ; Set Heat Bed temperature
M190 S60 ; Wait for Heat Bed temperature
M104 S160; start warming extruder to 160
G28 ; Home all axes
G29 ; Auto bed-level (BL-Touch)
G92 E0 ; Reset Extruder
M104 S200 ; Set Extruder temperature
G1 X0.1 Y20 Z0.3 F5000.0 ; Move to start position
M109 S200 ; Wait for Extruder temperature
; G1 Z2.0 F3000 ; Move Z Axis up little to prevent scratching of Heat Bed
G1 X0.1 Y200.0 Z0.3 F1500.0 E15 ; Draw the first line
G1 X0.4 Y200.0 Z0.3 F5000.0 ; Move to side a little
G1 X0.4 Y20 Z0.3 F1500.0 E30 ; Draw the second line
G92 E0 ; Reset Extruder
G1 Z2.0 F3000 ; Move Z Axis up little to prevent scratching of Heat Bed
; End of custom start GCode
G92 E0
G92 E0
G1 F1500 E-6.5
;LAYER_COUNT:67
;LAYER:0
M107
G0 F6000 X80.552 Y45.719 Z0.12
;TYPE:SKIRT
G1 F1500 E0
G1 F1200 X80.74 Y45.392 E0.00376
G1 X80.923 Y45.085 E0.00733
G1 X81.426 Y44.319 E0.01647
G1 X82.137 Y43.437 E0.02778
G1 X82.533 Y42.997 E0.03368
G1 X82.777 Y42.735 E0.03726
G1 X83.042 Y42.46 E0.04107
G1 X83.706 Y41.829 E0.05021
G1 X84.63 Y41.11 E0.06189
G1 X85.123 Y40.769 E0.06787
G1 X85.394 Y40.588 E0.07112
G1 X85.728 Y40.372 E0.07509
G1 X86.518 Y39.909 E0.08423
G1 X87.346 Y39.516 E0.09337
G1 X88.154 Y39.213 E0.10198
G1 X88.595 Y39.07 E0.10661
G1 X88.848 Y38.992 E0.10925
G1 X97.648 Y36.379 E0.20085
G1 X98.385 Y36.171 E0.20849
G1 X99.277 Y35.96 E0.21763
G1 X100.184 Y35.829 E0.22678
G1 X101.06 Y35.777 E0.23553
G1 X101.955 Y35.762 E0.24447
G1 X104.681 Y35.761 E0.27167
G1 X104.899 Y35.763 E0.27384
G1 X107.017 Y35.807 E0.29498
G1 X107.235 Y35.814 E0.29716
G1 X124.103 Y36.516 E0.46561
G1 X124.8 Y36.554 E0.47258
G1 X126 Y36.689 E0.48463
G1 X126.701 Y36.809 E0.49172
G1 X127.004 Y36.865 E0.4948
G1 X127.624 Y36.99 E0.50111
G1 X128.514 Y37.21 E0.51025
G1 X129.655 Y37.619 E0.52235
G1 X130.441 Y37.953 E0.53087
G1 X130.727 Y38.08 E0.53399
G1 X131.183 Y38.29 E0.539
G1 X131.998 Y38.709 E0.54815
G1 X133.031 Y39.382 E0.56045
G1 X133.728 Y39.897 E0.56909
G1 X133.991 Y40.098 E0.5724
G1 X134.384 Y40.408 E0.57739
G1 X135.078 Y41.006 E0.58653
G1 X135.923 Y41.901 E0.59881
G1 X136.462 Y42.543 E0.60718
G1 X136.671 Y42.801 E0.61049
G1 X136.996 Y43.214 E0.61574
G1 X137.531 Y43.958 E0.62488
G1 X138.136 Y45.011 E0.637
G1 X138.513 Y45.765 E0.64541
G1 X138.657 Y46.063 E0.64871
G1 X138.877 Y46.54 E0.65395
G1 X139.224 Y47.388 E0.66309
G1 X139.572 Y48.573 E0.67542
G1 X139.756 Y49.369 E0.68357
G1 X139.822 Y49.675 E0.68669
G1 X139.927 Y50.2 E0.69204
G1 X140.067 Y51.105 E0.70117
G1 X140.131 Y52.332 E0.71343
G1 X140.125 Y53.192 E0.72201
G1 X140.117 Y53.53 E0.72539
G1 X140.097 Y54.041 E0.73049
G1 X140.021 Y54.954 E0.73963
G1 X139.798 Y56.15 E0.75177
G1 X139.594 Y56.975 E0.76025
G1 X139.513 Y57.282 E0.76342
G1 X139.376 Y57.772 E0.7685
G1 X139.091 Y58.643 E0.77764
G1 X138.586 Y59.777 E0.79003
G1 X138.189 Y60.543 E0.79864
G1 X138.04 Y60.821 E0.80178
G1 X137.796 Y61.259 E0.80679
G1 X137.315 Y62.039 E0.81593
G1 X136.564 Y63.018 E0.82824
G1 X136 Y63.67 E0.83684
G1 X135.792 Y63.904 E0.83997
G1 X135.454 Y64.272 E0.84495
G1 X134.805 Y64.919 E0.8541
G1 X133.849 Y65.695 E0.86638
G1 X133.17 Y66.183 E0.87473
G1 X132.871 Y66.39 E0.87835
G1 X132.429 Y66.685 E0.88366
G1 X131.645 Y67.16 E0.8928
G1 X130.58 Y67.669 E0.90458
G1 X129.806 Y67.986 E0.91293
G1 X129.454 Y68.122 E0.91669
G1 X128.957 Y68.305 E0.92198
G1 X128.084 Y68.584 E0.93112
G1 X126.928 Y68.83 E0.94291
G1 X126.11 Y68.956 E0.95117
G1 X125.758 Y69.004 E0.95472
G1 X125.273 Y69.062 E0.95959
G1 X124.646 Y69.118 E0.96587
G1 X123.506 Y69.184 E0.97727
G1 X107.205 Y69.872 E1.14006
G1 X106.982 Y69.879 E1.14229
G1 X104.836 Y69.924 E1.16371
G1 X104.616 Y69.926 E1.1659
G1 X101.81 Y69.925 E1.1939
G1 X101.122 Y69.915 E1.20077
G1 X100.208 Y69.862 E1.2099
G1 X99.301 Y69.729 E1.21905
G1 X98.748 Y69.607 E1.2247
G1 X97.734 Y69.354 E1.23513
G1 X89.747 Y67.226 E1.3176
G1 X89.088 Y67.04 E1.32443
G1 X88.218 Y66.753 E1.33358
G1 X87.396 Y66.401 E1.3425
G1 X86.796 Y66.113 E1.34914
G1 X86.493 Y65.961 E1.35252
G1 X86.199 Y65.808 E1.35583
G1 X85.405 Y65.35 E1.36497
G1 X84.436 Y64.652 E1.37689
G1 X83.967 Y64.272 E1.38291
G1 X83.702 Y64.051 E1.38636
G1 X83.418 Y63.805 E1.39011
G1 X82.753 Y63.175 E1.39925
G1 X81.991 Y62.296 E1.41085
G1 X81.624 Y61.822 E1.41683
G1 X81.412 Y61.54 E1.42035
G1 X81.194 Y61.238 E1.42407
G1 X80.691 Y60.472 E1.43321
G1 X80.145 Y59.428 E1.44497
G1 X79.877 Y58.837 E1.45145
G1 X79.742 Y58.526 E1.45483
G1 X79.615 Y58.22 E1.45813
G1 X79.301 Y57.359 E1.46728
G1 X79.011 Y56.226 E1.47895
G1 X78.899 Y55.658 E1.48473
G1 X78.84 Y55.328 E1.48807
G1 X78.775 Y54.932 E1.49207
G1 X78.666 Y54.022 E1.50122
G1 X78.644 Y52.823 E1.51318
G1 X78.669 Y52.18 E1.51961
G1 X78.686 Y51.871 E1.52269
G1 X78.709 Y51.535 E1.52605
G1 X78.811 Y50.624 E1.5352
G1 X79.066 Y49.446 E1.54723
G1 X79.221 Y48.887 E1.55302
G1 X79.312 Y48.578 E1.55623
G1 X79.426 Y48.211 E1.56006
G1 X79.735 Y47.349 E1.5692
G1 X80.246 Y46.277 E1.58105
G1 X80.552 Y45.719 E1.5874
G0 F6000 X80.728 Y45.815
G1 F1200 X80.912 Y45.494 E1.59109
G1 X81.095 Y45.187 E1.59466
G1 X81.593 Y44.429 E1.60371
G1 X82.286 Y43.571 E1.61471
G1 X82.682 Y43.131 E1.62062
G1 X82.921 Y42.874 E1.62412
G1 X83.186 Y42.599 E1.62793
G1 X83.844 Y41.974 E1.63699
G1 X84.744 Y41.275 E1.64836
G1 X85.237 Y40.934 E1.65434
G1 X85.503 Y40.756 E1.65753
G1 X85.837 Y40.54 E1.6615
G1 X86.62 Y40.081 E1.67056
G1 X87.44 Y39.693 E1.67961
G1 X88.217 Y39.403 E1.68788
G1 X88.654 Y39.261 E1.69247
G1 X88.905 Y39.184 E1.69509
G1 X97.84 Y36.532 E1.78809
G1 X98.439 Y36.363 E1.7943
G1 X99.323 Y36.155 E1.80336
G1 X100.221 Y36.026 E1.81241
G1 X101.063 Y35.977 E1.82083
G1 X101.958 Y35.962 E1.82976
G1 X104.681 Y35.961 E1.85693
G1 X104.895 Y35.963 E1.85906
G1 X107.013 Y36.007 E1.8802
G1 X107.226 Y36.014 E1.88233
G1 X124.092 Y36.715 E2.05076
G1 X124.789 Y36.753 E2.05773
G1 X125.966 Y36.886 E2.06955
G1 X126.667 Y37.006 E2.07664
G1 X126.965 Y37.061 E2.07967
G1 X127.585 Y37.186 E2.08598
G1 X128.466 Y37.405 E2.09504
G1 X129.577 Y37.803 E2.10681
G1 X130.363 Y38.137 E2.11533
G1 X130.643 Y38.261 E2.11839
G1 X131.099 Y38.471 E2.1234
G1 X131.906 Y38.887 E2.13246
G1 X132.912 Y39.543 E2.14444
G1 X133.609 Y40.058 E2.15309
G1 X133.867 Y40.255 E2.15633
G1 X134.26 Y40.565 E2.16132
G1 X134.947 Y41.158 E2.17038
G1 X135.769 Y42.029 E2.18233
G1 X136.308 Y42.671 E2.19069
G1 X136.514 Y42.924 E2.19395
G1 X136.839 Y43.337 E2.19919
G1 X137.369 Y44.075 E2.20826
G1 X137.958 Y45.101 E2.22006
G1 X138.335 Y45.855 E2.22847
G1 X138.475 Y46.147 E2.2317
G1 X138.695 Y46.624 E2.23695
G1 X139.039 Y47.464 E2.246
G1 X139.377 Y48.618 E2.258
G1 X139.561 Y49.414 E2.26615
G1 X139.626 Y49.714 E2.26922
G1 X139.731 Y50.239 E2.27456
G1 X139.87 Y51.136 E2.28361
G1 X139.931 Y52.331 E2.29555
G1 X139.925 Y53.191 E2.30414
G1 X139.917 Y53.522 E2.30744
G1 X139.897 Y54.033 E2.31254
G1 X139.822 Y54.937 E2.32159
G1 X139.604 Y56.102 E2.33342
G1 X139.4 Y56.927 E2.3419
G1 X139.321 Y57.228 E2.345
G1 X139.184 Y57.718 E2.35008
G1 X138.901 Y58.581 E2.35914
G1 X138.409 Y59.685 E2.3712
G1 X138.012 Y60.451 E2.37981
G1 X137.865 Y60.724 E2.38291
G1 X137.621 Y61.162 E2.38791
G1 X137.145 Y61.934 E2.39696
G1 X136.413 Y62.888 E2.40896
G1 X135.849 Y63.54 E2.41756
G1 X135.645 Y63.768 E2.42061
G1 X135.307 Y64.136 E2.4256
G1 X134.664 Y64.777 E2.43466
G1 X133.732 Y65.533 E2.44663
G1 X133.053 Y66.021 E2.45497
G1 X132.76 Y66.224 E2.45853
G1 X132.318 Y66.519 E2.46383
G1 X131.542 Y66.989 E2.47289
G1 X130.504 Y67.484 E2.48436
G1 X129.73 Y67.801 E2.49271
G1 X129.385 Y67.935 E2.4964
G1 X128.888 Y68.118 E2.50168
G1 X128.023 Y68.393 E2.51074
G1 X126.897 Y68.632 E2.52223
G1 X126.079 Y68.758 E2.53048
G1 X125.734 Y68.805 E2.53396
G1 X125.249 Y68.863 E2.53883
G1 X124.635 Y68.918 E2.54498
G1 X123.497 Y68.984 E2.55636
G1 X107.196 Y69.672 E2.71915
G1 X106.978 Y69.679 E2.72133
G1 X104.832 Y69.724 E2.74275
G1 X104.616 Y69.726 E2.7449
G1 X101.813 Y69.725 E2.77287
G1 X101.125 Y69.715 E2.77974
G1 X100.219 Y69.662 E2.78879
G1 X99.322 Y69.529 E2.79784
G1 X98.797 Y69.413 E2.80321
G1 X97.785 Y69.161 E2.81361
G1 X89.801 Y67.034 E2.89605
G1 X89.142 Y66.848 E2.90289
G1 X88.28 Y66.563 E2.91195
G1 X87.483 Y66.221 E2.9206
G1 X86.883 Y65.933 E2.92724
G1 X86.585 Y65.784 E2.93057
G1 X86.291 Y65.631 E2.93387
G1 X85.505 Y65.177 E2.94293
G1 X84.562 Y64.497 E2.95453
G1 X84.093 Y64.117 E2.96055
G1 X83.833 Y63.899 E2.96394
G1 X83.549 Y63.653 E2.96769
G1 X82.89 Y63.03 E2.97674
G1 X82.149 Y62.174 E2.98803
G1 X81.782 Y61.7 E2.99401
G1 X81.575 Y61.423 E2.99747
G1 X81.357 Y61.121 E3.00118
G1 X80.858 Y60.362 E3.01024
G1 X80.327 Y59.346 E3.02168
G1 X80.059 Y58.755 E3.02816
G1 X79.927 Y58.449 E3.03148
G1 X79.8 Y58.143 E3.03479
G1 X79.489 Y57.291 E3.04384
G1 X79.208 Y56.188 E3.0552
G1 X79.096 Y55.62 E3.06097
G1 X79.037 Y55.295 E3.06427
G1 X78.972 Y54.899 E3.06827
G1 X78.865 Y53.998 E3.07733
G1 X78.844 Y52.831 E3.08897
G1 X78.869 Y52.188 E3.09539
G1 X78.885 Y51.885 E3.09842
G1 X78.908 Y51.549 E3.10178
G1 X79.01 Y50.647 E3.11084
G1 X79.258 Y49.5 E3.12255
G1 X79.413 Y48.941 E3.12834
G1 X79.503 Y48.638 E3.13149
G1 X79.617 Y48.271 E3.13533
G1 X79.924 Y47.417 E3.14438
G1 X80.422 Y46.373 E3.15592
G1 X80.728 Y45.815 E3.16227
G0 F6000 X80.903 Y45.912
G1 F1200 X81.083 Y45.597 E3.16589
G1 X81.266 Y45.29 E3.16946
G1 X81.76 Y44.539 E3.17843
G1 X82.435 Y43.704 E3.18914
G1 X82.831 Y43.264 E3.19505
G1 X83.065 Y43.013 E3.19847
G1 X83.33 Y42.738 E3.20228
G1 X83.982 Y42.119 E3.21125
G1 X84.857 Y41.439 E3.22231
G1 X85.35 Y41.098 E3.22829
G1 X85.611 Y40.924 E3.23142
G1 X85.945 Y40.708 E3.23539
G1 X86.721 Y40.254 E3.24436
G1 X87.534 Y39.871 E3.25333
G1 X88.279 Y39.593 E3.26126
G1 X88.713 Y39.452 E3.26582
G1 X88.962 Y39.376 E3.26841
G1 X97.894 Y36.724 E3.36138
G1 X98.493 Y36.555 E3.36759
G1 X99.368 Y36.35 E3.37656
G1 X100.258 Y36.223 E3.38553
G1 X101.067 Y36.177 E3.39362
G1 X101.962 Y36.162 E3.40255
G1 X104.681 Y36.161 E3.42968
G1 X104.891 Y36.163 E3.43177
G1 X107.009 Y36.207 E3.45291
G1 X107.218 Y36.214 E3.455
G1 X124.081 Y36.915 E3.6234
G1 X124.778 Y36.953 E3.63037
G1 X125.932 Y37.083 E3.64196
G1 X126.633 Y37.203 E3.64905
G1 X126.925 Y37.257 E3.65202
G1 X127.545 Y37.382 E3.65833
G1 X128.417 Y37.599 E3.66729
G1 X129.499 Y37.987 E3.67876
G1 X130.285 Y38.321 E3.68728
G1 X130.56 Y38.443 E3.69028
G1 X131.016 Y38.653 E3.69529
G1 X131.815 Y39.065 E3.70426
G1 X132.793 Y39.704 E3.71592
G1 X133.49 Y40.219 E3.72457
G1 X133.743 Y40.412 E3.72774
G1 X134.136 Y40.722 E3.73274
G1 X134.816 Y41.31 E3.74171
G1 X135.616 Y42.158 E3.75334
G1 X136.155 Y42.8 E3.7617
G1 X136.357 Y43.048 E3.7649
G1 X136.682 Y43.461 E3.77014
G1 X137.206 Y44.191 E3.77911
G1 X137.779 Y45.19 E3.7906
G1 X138.156 Y45.944 E3.79901
G1 X138.294 Y46.231 E3.80219
G1 X138.514 Y46.708 E3.80743
G1 X138.853 Y47.54 E3.81639
G1 X139.183 Y48.663 E3.82807
G1 X139.367 Y49.459 E3.83622
G1 X139.43 Y49.753 E3.83922
G1 X139.535 Y50.278 E3.84457
G1 X139.672 Y51.166 E3.85353
G1 X139.731 Y52.329 E3.86515
G1 X139.725 Y53.189 E3.87373
G1 X139.717 Y53.514 E3.87698
G1 X139.697 Y54.025 E3.88208
G1 X139.622 Y54.921 E3.89105
G1 X139.41 Y56.054 E3.90255
G1 X139.206 Y56.879 E3.91103
G1 X139.128 Y57.175 E3.91409
G1 X138.991 Y57.665 E3.91916
G1 X138.711 Y58.518 E3.92812
G1 X138.231 Y59.592 E3.93986
G1 X137.834 Y60.358 E3.94847
G1 X137.69 Y60.626 E3.9515
G1 X137.446 Y61.064 E3.95651
G1 X136.974 Y61.829 E3.96547
G1 X136.262 Y62.757 E3.97715
G1 X135.698 Y63.409 E3.98575
G1 X135.498 Y63.633 E3.98874
G1 X135.16 Y64.001 E3.99373
G1 X134.523 Y64.635 E4.0027
G1 X133.615 Y65.371 E4.01436
G1 X132.936 Y65.859 E4.0227
G1 X132.649 Y66.058 E4.02619
G1 X132.207 Y66.353 E4.03149
G1 X131.438 Y66.818 E4.04046
G1 X130.428 Y67.298 E4.05161
G1 X129.654 Y67.615 E4.05996
G1 X129.316 Y67.747 E4.06358
G1 X128.819 Y67.93 E4.06887
G1 X127.963 Y68.203 E4.07783
G1 X126.867 Y68.434 E4.08901
G1 X126.049 Y68.56 E4.09727
G1 X125.71 Y68.607 E4.10068
G1 X125.225 Y68.665 E4.10555
G1 X124.623 Y68.718 E4.11158
G1 X123.489 Y68.784 E4.12292
G1 X107.188 Y69.472 E4.28572
G1 X106.974 Y69.479 E4.28785
G1 X104.828 Y69.524 E4.30927
G1 X104.616 Y69.526 E4.31138
G1 X101.816 Y69.525 E4.33932
G1 X101.128 Y69.515 E4.34619
G1 X100.231 Y69.462 E4.35515
G1 X99.342 Y69.329 E4.36412
G1 X98.845 Y69.219 E4.3692
G1 X97.837 Y68.968 E4.37957
G1 X90 Y66.881 E4.46049
G1 X89.197 Y66.655 E4.46881
G1 X88.343 Y66.373 E4.47779
G1 X87.569 Y66.04 E4.4862
G1 X86.969 Y65.752 E4.49284
G1 X86.677 Y65.606 E4.49609
G1 X86.383 Y65.453 E4.4994
G1 X85.606 Y65.003 E4.50836
G1 X84.688 Y64.341 E4.51965
G1 X84.219 Y63.961 E4.52568
G1 X83.964 Y63.748 E4.52899
G1 X83.68 Y63.502 E4.53274
G1 X83.028 Y62.884 E4.5417
G1 X82.307 Y62.051 E4.5527
G1 X81.94 Y61.577 E4.55868
G1 X81.737 Y61.305 E4.56207
G1 X81.519 Y61.003 E4.56578
G1 X81.026 Y60.252 E4.57475
G1 X80.51 Y59.263 E4.58588
G1 X80.242 Y58.672 E4.59235
G1 X80.112 Y58.373 E4.5956
G1 X79.985 Y58.067 E4.59891
G1 X79.677 Y57.222 E4.60788
G1 X79.404 Y56.149 E4.61893
G1 X79.292 Y55.581 E4.62471
G1 X79.234 Y55.263 E4.62793
G1 X79.169 Y54.867 E4.63194
G1 X79.063 Y53.975 E4.6409
G1 X79.044 Y52.839 E4.65224
G1 X79.069 Y52.196 E4.65866
G1 X79.085 Y51.898 E4.66164
G1 X79.108 Y51.562 E4.665
G1 X79.209 Y50.669 E4.67396
G1 X79.451 Y49.553 E4.68536
G1 X79.606 Y48.994 E4.69115
G1 X79.694 Y48.697 E4.69424
G1 X79.808 Y48.33 E4.69807
G1 X80.112 Y47.484 E4.70704
G1 X80.597 Y46.47 E4.71826
G1 X80.903 Y45.912 E4.72461
G1 F1500 E-1.77539
;MESH:new_boite_007-btn.stl(1)
G0 F6000 X100.488 Y52.12
G0 X100.488 Y50.885
G0 X107.789 Y51.227
G0 X108.061 Y54.755
;TYPE:WALL-INNER
G1 F1500 E4.72461
G1 F1200 X108.061 Y50.955 E4.76252
G1 X99.061 Y50.955 E4.85233
G1 X99.061 Y54.755 E4.89024
G1 X108.061 Y54.755 E4.98005
G0 F6000 X107.861 Y54.555
G1 F1200 X107.861 Y51.155 E5.01397
G1 X99.261 Y51.155 E5.09978
G1 X99.261 Y54.555 E5.13371
G1 X107.861 Y54.555 E5.21952
G0 F6000 X107.661 Y54.355
;TYPE:WALL-OUTER
G1 F1200 X107.661 Y51.355 E5.24945
G1 X99.461 Y51.355 E5.33127
G1 X99.461 Y54.355 E5.36121
G1 X107.661 Y54.355 E5.44303
G1 F1500 E-1.05697
G0 F6000 X107.861 Y54.355
G0 X101.321 Y54.845
G0 X101.321 Y53.59
G0 X100.006 Y59.781
G0 X100.328 Y58.568
G0 X101.321 Y58.926
;TYPE:WALL-INNER
G1 F1500 E5.44303
G1 F1200 X92.081 Y56.465 E5.53844
G1 X91.299 Y56.072 E5.54717
G1 X90.636 Y55.515 E5.55581
G1 X90.122 Y54.828 E5.56437
G1 X89.777 Y54.027 E5.57307
G1 X89.625 Y53.186 E5.5816
G1 X89.673 Y52.317 E5.59029
G1 X89.917 Y51.492 E5.59887
G1 X90.351 Y50.734 E5.60759
G1 X90.933 Y50.11 E5.6161
G1 X91.635 Y49.64 E5.62453
G1 X101.331 Y46.761 E5.72545
G1 X105.721 Y46.761 E5.76925
G1 X124.183 Y47.527 E5.95363
G1 X125.435 Y47.761 E5.96634
G1 X126.573 Y48.268 E5.97877
G1 X127.566 Y49.031 E5.99126
G1 X128.351 Y49.999 E6.0037
G1 X128.885 Y51.119 E6.01608
G1 X129.147 Y52.35 E6.02864
G1 X129.116 Y53.595 E6.04106
G1 X128.796 Y54.797 E6.05347
G1 X128.201 Y55.897 E6.06595
G1 X127.368 Y56.825 E6.0784
G1 X126.331 Y57.54 E6.09096
G1 X125.18 Y57.987 E6.10329
G1 X123.914 Y58.156 E6.11603
G1 X105.667 Y58.926 E6.29826
G1 X101.321 Y58.926 E6.34163
G0 F6000 X101.296 Y59.126
G1 F1200 X92.006 Y56.652 E6.43755
G1 X91.189 Y56.241 E6.44668
G1 X90.49 Y55.654 E6.45579
G1 X89.947 Y54.928 E6.46483
G1 X89.584 Y54.086 E6.47398
G1 X89.424 Y53.197 E6.48299
G1 X89.474 Y52.283 E6.49213
G1 X89.731 Y51.413 E6.50118
G1 X90.187 Y50.617 E6.51033
G1 X90.803 Y49.957 E6.51934
G1 X91.551 Y49.456 E6.52832
G1 X101.301 Y46.561 E6.62981
G1 X105.729 Y46.561 E6.67399
G1 X124.208 Y47.328 E6.85853
G1 X125.494 Y47.568 E6.87159
G1 X126.677 Y48.095 E6.88451
G1 X127.705 Y48.885 E6.89744
G1 X128.52 Y49.891 E6.91036
G1 X129.077 Y51.058 E6.92327
G1 X129.348 Y52.33 E6.93624
G1 X129.315 Y53.622 E6.94914
G1 X128.982 Y54.873 E6.96206
G1 X128.365 Y56.014 E6.975
G1 X127.501 Y56.977 E6.98791
G1 X126.429 Y57.716 E7.0009
G1 X125.229 Y58.182 E7.01375
G1 X123.926 Y58.356 E7.02686
G1 X105.675 Y59.126 E7.20913
G1 X101.296 Y59.126 E7.25283
G0 F6000 X101.271 Y59.326
;TYPE:WALL-OUTER
G1 F1200 X91.931 Y56.839 E7.34927
G1 X91.079 Y56.41 E7.35879
G1 X90.344 Y55.793 E7.36836
